svg/公开文件夹-有内容.svg

<svg width="544" height="544" viewBox="0 0 544 544" fill="none" xmlns="http://www.w3.org/2000/svg">
<path d="M16 98.5602V444.948C16 459.752 28.0016 471.754 42.8063 471.754H501.194C515.998 471.754 528 459.752 528 444.948V153.227C528 138.422 515.998 126.421 501.194 126.421H260.603C250.182 126.421 240.743 120.338 235.291 111.456C225.357 95.2712 207.444 71.7539 187.225 71.7539H42.7644C27.9597 71.7539 16 83.7555 16 98.5602Z" fill="#438DA6"/>
<rect x="31" y="143" width="482" height="173" rx="20" fill="white"/>
<path d="M528 187.277V435.663C528 450.468 515.998 462.47 501.194 462.47H42.8394C28.0218 462.47 16.0148 450.448 16.0331 435.63L16.3395 187.244C16.3578 172.452 28.3147 160.47 43.1065 160.47L178.178 160.47C223.749 160.47 217.382 160.469 248.544 160.47C333.567 160.474 449.546 160.472 501.239 160.471C516.044 160.471 528 172.472 528 187.277Z" fill="url(#paint0_linear_2434_3327)"/>
<defs>
<linearGradient id="paint0_linear_2434_3327" x1="528" y1="160.47" x2="52.1901" y2="511.521" gradientUnits="userSpaceOnUse">
<stop offset="0.234375" stop-color="#65CDE3"/>
<stop offset="1" stop-color="#438DA6"/>
</linearGradient>
</defs>
</svg>

<svg fill="none" viewBox="0 0 544 544"><path fill="#438DA6" d="M16 98.56v346.388c0 14.804 12.002 26.806 26.806 26.806h458.388c14.804 0 26.806-12.002 26.806-26.806V153.227c0-14.805-12.002-26.806-26.806-26.806H260.603c-10.421 0-19.86-6.083-25.312-14.965-9.934-16.185-27.847-39.702-48.066-39.702H42.765C27.96 71.754 16 83.755 16 98.56"/><rect width="482" height="173" x="31" y="143" fill="white" rx="20"/><path fill="url(#a)" d="M528 187.277v248.386c0 14.805-12.002 26.807-26.806 26.807H42.839c-14.817 0-26.824-12.022-26.806-26.84l.306-248.386c.019-14.792 11.976-26.774 26.768-26.774h205.437c85.023.004 201.002.002 252.695.001 14.805 0 26.761 12.001 26.761 26.806"/><defs><linearGradient id="a" x1="528" x2="52.19" y1="160.47" y2="511.521" gradientUnits="userSpaceOnUse"><stop offset=".234" stop-color="#65CDE3"/><stop offset="1" stop-color="#438DA6"/></linearGradient></defs></svg>
